X:0678
M:C|
L:1/8
Q:1/2=104
K:D
f|defg afdf|(ag/f/) df geef     |defg  afdA|Bgfe      fdd
f|defg afdf| ag/f/  df geeg     |fdaf  gebg|fdAc      dDD|]

